assets/icons/WakeUpNPC.svg

<svg width="641" height="73" viewBox="0 0 641 73" fill="none" xmlns="http://www.w3.org/2000/svg">
  <g id="wake-up-npc">
    <g id="NPC">
      <path id="C"
        d="M624.206 8.52799L626.104 0.35199L640.193 4.65899L630.557 31.012L619.461 28.019L621.724 18.821C619.315 17.872 614.132 15.098 605.445 15.098C595.006 15.098 586.538 22.69 586.538 31.888C586.538 41.962 594.568 48.24 605.445 48.24C618.366 48.24 626.25 42.473 629.973 39.991L635.594 49.554C632.09 52.328 626.907 54.956 621.432 56.562C617.198 57.876 610.263 58.898 605.445 58.898C579.749 58.898 570.04 45.977 570.04 31.888C570.04 20.427 578.727 4.80499 605.445 4.80499C613.256 4.80499 621.432 7.28699 624.206 8.52799Z"
        fill="#DADADA" />
      <path id="P"
        d="M521.228 38.312L521.082 47.583L534.441 46.415V57.584C526.411 57.365 520.717 57 514.512 57C508.599 57 503.343 57.365 497.284 57.584V46.415L507.796 47.291L506.701 17.142L497.284 19.697L495.824 7.87097C503.343 6.84897 518.527 5.60797 532.981 5.60797C553.348 5.60797 563.568 10.937 563.568 21.887C563.568 32.034 553.494 40.064 534.003 40.064C529.185 40.064 524.294 39.188 521.228 38.312ZM521.593 16.12L521.374 29.187C523.929 29.99 526.849 30.866 533.419 30.866C541.814 30.866 546.705 27.508 546.705 22.982C546.705 18.31 541.668 15.609 532.251 15.609C526.484 15.609 524.44 15.755 521.593 16.12Z"
        fill="#DADADA" />
      <path id="N"
        d="M467.855 15.682L457.197 16.558V5.389C462.599 5.754 468.001 5.973 473.33 5.973C479.024 5.973 484.645 5.754 489.974 5.389V16.558L480.046 15.682L479.754 55.759L466.906 58.606L433.107 21.449L432.742 47.218L443.765 46.342V57.584C438.363 57.219 432.961 57 427.632 57C421.938 57 416.244 57.219 410.988 57.584V46.342L421.208 47.218L420.916 16.485L411.791 18.602L410.039 6.849L433.983 4.44L468.293 41.743L467.855 15.682Z"
        fill="#DADADA" />
    </g>
    <g id="Up">
      <path id="p"
        d="M348.036 72.768V61.599L357.161 62.329C357.818 51.744 357.38 40.429 356.358 31.888L348.912 34.808L346.357 22.982L370.009 19.624L369.571 23.712C371.396 22.763 376.36 20.719 383.295 20.719C394.683 20.719 402.494 27.946 402.494 37.874C402.494 50.065 393.953 57.949 381.762 57.949C376.652 57.949 370.374 55.248 369.279 54.007V62.402L381.835 61.453V72.768C377.747 72.549 371.761 72.33 365.629 72.33C359.497 72.33 353.365 72.549 348.036 72.768ZM369.206 33.202V44.006C370.155 45.32 373.586 47.948 378.477 47.948C384.39 47.948 387.967 44.59 387.967 38.604C387.967 33.713 384.901 30.136 378.185 30.136C373.732 30.136 371.25 31.961 369.206 33.202Z"
        fill="#6DD3FF" />
      <path id="U"
        d="M334.74 16.412L334.229 33.786C333.791 49.116 322.914 58.898 305.613 58.898C288.239 58.898 277.435 49.043 276.997 33.786L276.486 16.412L267.434 17.288V6.11902C273.274 6.33802 278.092 6.70302 284.005 6.70302C290.21 6.70302 295.539 6.33802 301.817 6.11902V17.288L291.232 16.412V32.983C291.232 42.619 296.123 48.24 305.613 48.24C315.541 48.24 319.994 42.619 319.994 32.983V16.412L309.336 17.288V6.11902C315.687 6.33802 320.943 6.70302 327.221 6.70302C333.134 6.70302 337.952 6.33802 343.792 6.11902V17.288L334.74 16.412Z"
        fill="#6DD3FF" />
    </g>
    <g id="Wake">
      <path id="e"
        d="M265.145 42.108H231.492C232.149 45.028 234.485 48.751 243.099 48.751C247.99 48.751 254.122 46.05 257.845 43.714L262.663 53.131C259.159 55.248 250.837 58.46 240.106 58.46C226.82 58.46 216.235 51.233 216.235 39.261C216.235 26.851 227.039 20.427 240.325 20.427C256.823 20.427 265.218 29.552 265.291 38.823C265.291 39.918 265.218 41.159 265.145 42.108ZM231.346 35.976H251.494C251.056 33.056 247.698 29.479 241.274 29.479C234.923 29.479 232.003 33.129 231.346 35.976Z"
        fill="#6DD3FF" />
      <path id="k"
        d="M163.508 46.488L162.778 14.806L155.332 17.799L152.704 5.97298L176.648 3.05298L175.334 35.465C180.444 29.625 194.46 20.062 204.242 20.573L208.987 31.45C202.49 31.669 194.241 34.37 190.226 37.144L200.665 45.539L205.045 40.721L212.053 48.386L195.117 60.431C188.547 52.109 184.897 48.313 179.422 43.641L175.407 47.145L175.918 57H154.529V45.831L163.508 46.488Z"
        fill="#6DD3FF" />
      <path id="a"
        d="M141.381 47.364L147.951 45.101L150.506 57.073L128.533 59.555L128.971 52.62C126.562 54.299 120.284 58.168 112.546 58.168C101.961 58.168 95.5371 53.423 95.5371 46.342C95.5371 39.261 102.326 35.1 114.955 35.1C120.211 35.1 124.956 36.341 128.46 37.436V36.414C128.46 33.421 126.343 30.209 119.262 30.209C112.327 30.209 106.779 32.91 103.348 35.465L97.7271 25.756C102.034 23.712 109.918 20.208 119.846 20.208C132.694 20.208 141.819 23.42 141.819 39.845C141.819 41.597 141.6 45.758 141.381 47.364ZM111.889 46.05C111.889 48.459 113.933 49.992 117.218 49.992C121.598 49.992 126.27 47.364 128.314 45.028C125.978 43.787 121.598 42.619 118.459 42.619C114.736 42.619 111.889 44.006 111.889 46.05Z"
        fill="#6DD3FF" />
      <path id="W"
        d="M76.9535 58.168L58.7765 58.825L50.4545 26.851L41.9135 58.168L23.5175 58.825L7.89547 16.558L0.0114746 17.288V6.11902C4.97547 6.41102 10.2315 6.70302 15.6335 6.70302C20.8165 6.70302 26.0725 6.41102 32.2775 6.11902V17.288L23.7365 16.558L33.0075 49.043L43.9575 6.04602H58.2655L69.2885 48.97L78.8515 16.558L70.1645 17.288V6.11902C74.3985 6.41102 79.6545 6.70302 84.8375 6.70302C90.1665 6.70302 95.4955 6.41102 100.459 6.11902V17.288L92.5025 16.558L76.9535 58.168Z"
        fill="#6DD3FF" />
    </g>
  </g>
</svg>

<svg fill="none" height="73" viewBox="0 0 641 73" width="641" xmlns="http://www.w3.org/2000/svg"><path d="m624.206 8.52799 1.898-8.176 14.089 4.307-9.636 26.35301-11.096-2.993 2.263-9.198c-2.409-.949-7.592-3.723-16.279-3.723-10.439 0-18.907 7.592-18.907 16.79 0 10.074 8.03 16.352 18.907 16.352 12.921 0 20.805-5.767 24.528-8.249l5.621 9.563c-3.504 2.774-8.687 5.402-14.162 7.008-4.234 1.314-11.169 2.336-15.987 2.336-25.696 0-35.405-12.921-35.405-27.01 0-11.461 8.687-27.08301 35.405-27.08301 7.811 0 15.987 2.482 18.761 3.723z" fill="#dadada"/><path d="m521.228 38.312-.146 9.271 13.359-1.168v11.169c-8.03-.219-13.724-.584-19.929-.584-5.913 0-11.169.365-17.228.584v-11.169l10.512.876-1.095-30.149-9.417 2.555-1.46-11.82603c7.519-1.022 22.703-2.263 37.157-2.263 20.367 0 30.587 5.32903 30.587 16.27903 0 10.147-10.074 18.177-29.565 18.177-4.818 0-9.709-.876-12.775-1.752zm.365-22.192-.219 13.067c2.555.803 5.475 1.679 12.045 1.679 8.395 0 13.286-3.358 13.286-7.884 0-4.672-5.037-7.373-14.454-7.373-5.767 0-7.811.146-10.658.511z" fill="#dadada"/><path d="m467.855 15.682-10.658.876v-11.169c5.402.365 10.804.584 16.133.584 5.694 0 11.315-.219 16.644-.584v11.169l-9.928-.876-.292 40.077-12.848 2.847-33.799-37.157-.365 25.769 11.023-.876v11.242c-5.402-.365-10.804-.584-16.133-.584-5.694 0-11.388.219-16.644.584v-11.242l10.22.876-.292-30.733-9.125 2.117-1.752-11.753 23.944-2.409 34.31 37.303z" fill="#dadada"/><g fill="#6dd3ff"><path d="m348.036 72.768v-11.169l9.125.73c.657-10.585.219-21.9-.803-30.441l-7.446 2.92-2.555-11.826 23.652-3.358-.438 4.088c1.825-.949 6.789-2.993 13.724-2.993 11.388 0 19.199 7.227 19.199 17.155 0 12.191-8.541 20.075-20.732 20.075-5.11 0-11.388-2.701-12.483-3.942v8.395l12.556-.949v11.315c-4.088-.219-10.074-.438-16.206-.438s-12.264.219-17.593.438zm21.17-39.566v10.804c.949 1.314 4.38 3.942 9.271 3.942 5.913 0 9.49-3.358 9.49-9.344 0-4.891-3.066-8.468-9.782-8.468-4.453 0-6.935 1.825-8.979 3.066z"/><path d="m334.74 16.412-.511 17.374c-.438 15.33-11.315 25.112-28.616 25.112-17.374 0-28.178-9.855-28.616-25.112l-.511-17.374-9.052.876v-11.16898c5.84.219 10.658.584 16.571.584 6.205 0 11.534-.365 17.812-.584v11.16898l-10.585-.876v16.571c0 9.636 4.891 15.257 14.381 15.257 9.928 0 14.381-5.621 14.381-15.257v-16.571l-10.658.876v-11.16898c6.351.219 11.607.584 17.885.584 5.913 0 10.731-.365 16.571-.584v11.16898z"/><path d="m265.145 42.108h-33.653c.657 2.92 2.993 6.643 11.607 6.643 4.891 0 11.023-2.701 14.746-5.037l4.818 9.417c-3.504 2.117-11.826 5.329-22.557 5.329-13.286 0-23.871-7.227-23.871-19.199 0-12.41 10.804-18.834 24.09-18.834 16.498 0 24.893 9.125 24.966 18.396 0 1.095-.073 2.336-.146 3.285zm-33.799-6.132h20.148c-.438-2.92-3.796-6.497-10.22-6.497-6.351 0-9.271 3.65-9.928 6.497z"/><path d="m163.508 46.488-.73-31.682-7.446 2.993-2.628-11.82602 23.944-2.92-1.314 32.41202c5.11-5.84 19.126-15.403 28.908-14.892l4.745 10.877c-6.497.219-14.746 2.92-18.761 5.694l10.439 8.395 4.38-4.818 7.008 7.665-16.936 12.045c-6.57-8.322-10.22-12.118-15.695-16.79l-4.015 3.504.511 9.855h-21.389v-11.169z"/><path d="m141.381 47.364 6.57-2.263 2.555 11.972-21.973 2.482.438-6.935c-2.409 1.679-8.687 5.548-16.425 5.548-10.585 0-17.0089-4.745-17.0089-11.826s6.7889-11.242 19.4179-11.242c5.256 0 10.001 1.241 13.505 2.336v-1.022c0-2.993-2.117-6.205-9.198-6.205-6.935 0-12.483 2.701-15.914 5.256l-5.6209-9.709c4.3069-2.044 12.1909-5.548 22.1189-5.548 12.848 0 21.973 3.212 21.973 19.637 0 1.752-.219 5.913-.438 7.519zm-29.492-1.314c0 2.409 2.044 3.942 5.329 3.942 4.38 0 9.052-2.628 11.096-4.964-2.336-1.241-6.716-2.409-9.855-2.409-3.723 0-6.57 1.387-6.57 3.431z"/><path d="m76.9535 58.168-18.177.657-8.322-31.974-8.541 31.317-18.396.657-15.62203-42.267-7.8839954.73v-11.16898c4.9639954.292 10.2200254.584 15.6220254.584 5.183 0 10.439-.292 16.644-.584v11.16898l-8.541-.73 9.271 32.485 10.95-42.99698h14.308l11.023 42.92398 9.563-32.412-8.687.73v-11.16898c4.234.292 9.49.584 14.673.584 5.329 0 10.658-.292 15.6215-.584v11.16898l-7.9565-.73z"/></g></svg>
